X:78
T:Quadrill. CJF.078
R:Quadrille
S:C.J.Fox MS, 1829/33, Beverley,E.Yorks.
N:On title line is “From Watson’s Book – PJH.
B:Kidson Coll.Mitchell Lib.M1805
O:England
A:East Yorkshire
Z:vmp.P J Headford 2000 & 2008
M:6/8
L:1/8
Q:3/8=110
K:C
G|”pia”e>dc dAB|c2A G2E|F>GA Gce|edd d2G|\
” for”e>dc dAB|c2A G2E|F>GA Gce|ed” Fine”B c2h||!
|:g|dBd G2g|ece G2g|f2f e2e|edd d2g|\
dBd G2g|ece A2a|g^fe def|g3- g2:|

